X:97
T:Katie Scollard's Polka
N:"Maggie Scollard's Slide" is the same tune in a different setting.
M:2/4
L:1/8
R:Polka
B:Deloughery - Sliabh Luachra on Parade (1980, No. 97)
N:From the playing of Terry Teahan
Z:Patrick Cavanagh
K:A
B|cA BA|FA E2|FA/F/ EF|AF E2|cA BA|FA E2|FA Bc/B/|1A2 A:|2A2 A2||
|:AB cA|B/c/d ec|dB c/B/A|B/4c/4B/4A F2|AB cA|B/c/d ec|dB cB|A2 A2:||

